!!!OTL: Der heimkehrende Soldat Husaren kom ater fran kriget och hem, Hurra!
!!!ARE: Nordeuropa, Sverige
!!!YOR: 5, S. 163
!!    1903 gedruckt in Stockholm
!!!SCT: Q2103N
!!!YEM: Copyright 1995, estate of Helmut Schaffrath.
**kern
*ICvox
*Ivox
*M6/8
*k[f#]
*G:
{8d
=1
8g
8b
8a
8g
8f#
8e
=2
8d
8e
8d
8c
8B
8d
=3
4.g
4r}
{8d
=4
8g
8b
8a
8g
8f#
8e
=5
8d
8e
8d
8c
8B
8d
=6
4.g
4r}
{16g
16a
=7
8b
8b
8b
8b
8a
8b
=8
8dd
8dd
8dd
4a}
{8dd
=9
8cc
8b
8a
8g
8f#
8g
=10
8a
8g
8e
4d}
{8g
=11
4d
8d
4B
8d
=12
4.g
4r}
==
!!!AGN: Ballade, Ehe, Betrug
!! Schwedische Fassung der Ballade. Anhaengsel; letzte Zeile = Refrain.
!!!ONB: ESAC (Essen Associative Code) Database: BALLADE
!!!AMT: compound duple
!!!AIN: vox
!!!EED: Helmut Schaffrath
!!!EEV: 1.0
*-
